public/img/CATEGORIES_ICONS/EDU_ICON.svg

<?xml version="1.0" encoding="UTF-8"?>
<svg width="88px" height="118px" viewBox="0 0 88 118" version="1.1" xmlns="http://www.w3.org/2000/svg" xmlns:xlink="http://www.w3.org/1999/xlink">
    <!-- Generator: Sketch 42 (36781) - http://www.bohemiancoding.com/sketch -->
    <title>EDU_ICON</title>
    <desc>Created with Sketch.</desc>
    <defs></defs>
    <g id="Page-1" stroke="none" stroke-width="1" fill="none" fill-rule="evenodd">
        <g id="Home" transform="translate(-428.000000, -1067.000000)">
            <g id="CATEGORIES" transform="translate(122.000000, 1066.000000)">
                <g id="EDU_ICON" transform="translate(306.000000, 0.982000)">
                    <polygon id="Fill-10" fill="#00B1B0" points="0.6057 25.0183 43.9067 0.0183 87.2087 25.0183 87.2087 75.0183 43.9067 100.0183 0.6057 75.0183"></polygon>
                    <path d="M12.3122,46.1453 C12.3122,44.6703 41.8002,31.0843 43.9072,31.0843 C46.0132,31.0843 75.5012,45.3023 75.5012,46.1453 C75.5012,46.9883 45.4872,62.4673 43.9072,62.4673 C42.3272,62.4673 12.3122,47.6193 12.3122,46.1453" id="Fill-12" fill="#FEFEFE"></path>
                    <path d="M21.4221,68.7351 C17.6831,68.4701 17.0521,67.4621 17.0521,67.4621" id="Fill-14" fill="#FEFEFE"></path>
                    <path d="M18.7536,62.6902 C19.9246,62.3802 20.7906,61.3152 20.7906,60.0472 C20.7906,58.7512 19.8916,57.6702 18.6846,57.3832 L18.6846,52.1892 C18.0986,51.8742 17.5556,51.5772 17.0516,51.2982 L17.0516,57.4992 C16.0346,57.8992 15.3136,58.8872 15.3136,60.0472 C15.3136,61.2052 16.0346,62.1942 17.0516,62.5932 L17.0516,67.4612 C17.0516,67.4612 22.5286,69.6302 21.4216,68.7352 C20.4516,67.9482 19.0736,63.7102 18.7536,62.6902" id="Fill-16" fill="#FEFEFE"></path>
                    <path d="M43.9069,64.1687 C42.4399,64.1687 32.9759,59.5097 27.8989,56.9567 L27.8989,60.4677 C27.8989,60.4677 30.1109,66.7857 42.0119,67.4187 C53.0689,67.9457 60.0199,63.6277 60.5459,61.2047 L60.5459,56.4067 C45.4939,64.1637 44.3409,64.1687 43.9069,64.1687" id="Fill-18" fill="#FEFEFE"></path>
                    <polygon id="Fill-20" fill="#00B1B0" points="10.0437 109.0229 15.1407 109.0229 15.1407 110.3549 11.5907 110.3549 11.5907 112.5859 14.4577 112.5859 14.4577 113.9169 11.5907 113.9169 11.5907 116.2079 15.3327 116.2079 15.3327 117.5389 10.0437 117.5389"></polygon>
                    <path d="M19.7619,116.2075 C21.4889,116.2075 22.5929,115.1875 22.5929,113.2695 C22.5929,111.3735 21.4649,110.3545 19.7619,110.3545 L18.4909,110.3545 L18.4909,116.2075 L19.7619,116.2075 Z M16.9439,109.0225 L19.8459,109.0225 C22.4719,109.0225 24.1869,110.5825 24.1869,113.2695 C24.1869,115.9555 22.4719,117.5385 19.8459,117.5385 L16.9439,117.5385 L16.9439,109.0225 Z" id="Fill-22" fill="#00B1B0"></path>
                    <path d="M25.6916,109.0229 L27.2386,109.0229 L27.2386,114.4799 C27.2386,115.6199 27.9826,116.2669 29.1216,116.2669 C30.2606,116.2669 31.0166,115.6199 31.0166,114.4679 L31.0166,109.0229 L32.5636,109.0229 L32.5636,114.4799 C32.5636,116.3869 31.1846,117.6819 29.1336,117.6819 C27.0706,117.6819 25.6916,116.3869 25.6916,114.4799 L25.6916,109.0229 Z" id="Fill-24" fill="#00B1B0"></path>
                    <path d="M38.3972,108.8794 C40.4722,108.8794 41.5402,110.0424 41.5402,110.0424 L40.7962,111.1934 C40.7962,111.1934 39.8242,110.2944 38.4692,110.2944 C36.6702,110.2944 35.6152,111.6384 35.6152,113.2214 C35.6152,114.8404 36.7062,116.2674 38.4812,116.2674 C39.9562,116.2674 40.9522,115.1884 40.9522,115.1884 L41.7672,116.3034 C41.7672,116.3034 40.5922,117.6824 38.4212,117.6824 C35.8182,117.6824 34.0202,115.7514 34.0202,113.2444 C34.0202,110.7744 35.8912,108.8794 38.3972,108.8794" id="Fill-26" fill="#00B1B0"></path>
                    <path d="M45.9338,110.4985 C45.9338,110.4985 45.7418,111.3385 45.5738,111.8175 L44.8188,114.0965 L47.0488,114.0965 L46.2938,111.8175 C46.1378,111.3385 45.9578,110.4985 45.9578,110.4985 L45.9338,110.4985 Z M47.4328,115.3555 L44.4468,115.3555 L43.7268,117.5385 L42.1318,117.5385 L45.1298,109.0225 L46.7488,109.0225 L49.7478,117.5385 L48.1528,117.5385 L47.4328,115.3555 Z" id="Fill-28" fill="#00B1B0"></path>
                    <polygon id="Fill-30" fill="#00B1B0" points="52.1145 110.355 49.3205 110.355 49.3205 109.023 56.4565 109.023 56.4565 110.355 53.6615 110.355 53.6615 117.539 52.1145 117.539"></polygon>
                    <polygon id="Fill-32" fill="#00B1B0" points="57.588 117.539 59.135 117.539 59.135 109.023 57.588 109.023"></polygon>
                    <path d="M65.1096,116.2671 C66.6686,116.2671 67.9156,114.9721 67.9156,113.2211 C67.9156,111.5411 66.6686,110.2941 65.1096,110.2941 C63.5496,110.2941 62.3026,111.5411 62.3026,113.2211 C62.3026,114.9721 63.5496,116.2671 65.1096,116.2671 M65.1096,108.8791 C67.6156,108.8791 69.5106,110.7871 69.5106,113.2211 C69.5106,115.7281 67.6156,117.6821 65.1096,117.6821 C62.6026,117.6821 60.7076,115.7281 60.7076,113.2211 C60.7076,110.7871 62.6026,108.8791 65.1096,108.8791" id="Fill-34" fill="#00B1B0"></path>
                    <path d="M71.0876,109.0229 L72.6346,109.0229 L75.8606,113.9409 C76.1846,114.4319 76.5686,115.2599 76.5686,115.2599 L76.5926,115.2599 C76.5926,115.2599 76.5086,114.4439 76.5086,113.9409 L76.5086,109.0229 L78.0436,109.0229 L78.0436,117.5389 L76.5086,117.5389 L73.2826,112.6329 C72.9586,112.1409 72.5746,111.3139 72.5746,111.3139 L72.5506,111.3139 C72.5506,111.3139 72.6346,112.1289 72.6346,112.6329 L72.6346,117.5389 L71.0876,117.5389 L71.0876,109.0229 Z" id="Fill-35" fill="#00B1B0"></path>
                </g>
            </g>
        </g>
    </g>
</svg>

<svg width="88" height="118" viewBox="0 0 88 118" xmlns="http://www.w3.org/2000/svg"><title>EDU_ICON</title><g fill="none" fill-rule="evenodd"><path fill="#00B1B0" d="M.606 25l43.3-25L87.21 25v50l-43.302 25L.606 75z"/><path d="M12.312 46.127c0-1.475 29.488-15.06 31.595-15.06 2.106 0 31.594 14.217 31.594 15.06S45.487 62.45 43.907 62.45c-1.58 0-31.595-14.848-31.595-16.322M21.422 68.717c-3.739-.265-4.37-1.273-4.37-1.273" fill="#FEFEFE"/><path d="M18.754 62.672a2.738 2.738 0 0 0 2.037-2.643 2.74 2.74 0 0 0-2.106-2.664v-5.194a150.14 150.14 0 0 1-1.633-.89v6.2a2.736 2.736 0 1 0 0 5.094v4.868s5.477 2.17 4.37 1.274c-.97-.787-2.348-5.025-2.668-6.045M43.907 64.15c-1.467 0-10.931-4.658-16.008-7.211v3.51s2.212 6.319 14.113 6.952c11.057.527 18.008-3.791 18.534-6.214v-4.798c-15.052 7.757-16.205 7.762-16.64 7.762" fill="#FEFEFE"/><path fill="#00B1B0" d="M10.044 109.005h5.097v1.332h-3.55v2.23h2.867v1.332H11.59v2.29h3.742v1.332h-5.29zM19.762 116.19c1.727 0 2.83-1.02 2.83-2.939 0-1.895-1.127-2.915-2.83-2.915H18.49v5.853h1.27zm-2.818-7.186h2.902c2.626 0 4.34 1.56 4.34 4.247 0 2.686-1.714 4.27-4.34 4.27h-2.902v-8.517zM25.692 109.005h1.547v5.457c0 1.14.744 1.787 1.883 1.787s1.895-.647 1.895-1.8v-5.444h1.547v5.457c0 1.907-1.38 3.202-3.43 3.202-2.063 0-3.442-1.295-3.442-3.202v-5.457zM38.397 108.861c2.075 0 3.143 1.163 3.143 1.163l-.744 1.151s-.972-.899-2.327-.899c-1.799 0-2.854 1.344-2.854 2.927 0 1.62 1.091 3.046 2.866 3.046 1.475 0 2.471-1.079 2.471-1.079l.815 1.115s-1.175 1.38-3.346 1.38c-2.603 0-4.4-1.932-4.4-4.439 0-2.47 1.87-4.365 4.376-4.365M45.934 110.48s-.192.84-.36 1.32l-.755 2.279h2.23l-.755-2.28c-.156-.479-.336-1.319-.336-1.319h-.024zm1.499 4.858h-2.986l-.72 2.183h-1.595l2.998-8.517h1.619l2.999 8.516h-1.595l-.72-2.182zM52.114 110.337h-2.793v-1.332h7.136v1.332H53.66v7.184h-1.547zM57.588 117.521h1.547v-8.516h-1.547zM65.11 116.25c1.559 0 2.806-1.296 2.806-3.047 0-1.68-1.247-2.927-2.806-2.927-1.56 0-2.807 1.247-2.807 2.927 0 1.751 1.247 3.046 2.807 3.046m0-7.388c2.506 0 4.4 1.908 4.4 4.342 0 2.507-1.894 4.461-4.4 4.461-2.507 0-4.402-1.954-4.402-4.46 0-2.435 1.895-4.343 4.402-4.343M71.088 109.005h1.547l3.226 4.918c.324.49.708 1.319.708 1.319h.024s-.084-.816-.084-1.32v-4.917h1.535v8.516h-1.535l-3.226-4.906c-.324-.492-.708-1.32-.708-1.32h-.024s.084.816.084 1.32v4.906h-1.547v-8.516z"/></g></svg>
